X: 103
T:Willafjord
R:reel
C:Trad
O:Shetland
M:4/4
L:1/8
K:D
B | A2 F A2 D FA | B2 G B2 D GB | A2 F A2 D FA | EFGA GFED | A2 F A2 D F
A | B2 G B2 D GB | ABcd efge | f2 d2 d3 :|
e |f2 d f2 f df | geaf gfeg | f2 d f2 A df | e2 c e2 A ce | f2 d f2 f df
 | geaf gfec | adcd efge | f2 d2 d3 :|
% Output from ABC2Win  Version 2.1 f on 28/01/2001
